public/common/form/medium_white_we.svg

<svg width="180" height="115" viewBox="0 0 180 115" fill="none" xmlns="http://www.w3.org/2000/svg">
<g id="Icon" filter="url(#filter0_ii_349_1409)">
<path d="M19.507 95.1433C8.733 95.1433 0 86.4156 0 75.6481L0 20.381C0 9.61349 8.733 0.885742 19.507 0.885742L160.493 0.885742C171.267 0.885742 180 9.61349 180 20.381V95.1433L19.507 95.1433Z" fill="white"/>
<path d="M22.4511 22.186L35.4488 22.186L46.0923 52.2819L57.5449 22.186H65.4949L76.7387 51.9428L87.3926 22.186L100.474 22.186L81.16 75.0846H72.7454L61.4598 44.9418L49.835 75.0846H41.5144L22.4511 22.186Z" fill="#34D186"/>
<path d="M161.025 52.4749H118.363C118.979 56.2362 120.623 59.2255 123.301 61.4426C125.973 63.665 129.387 64.771 133.542 64.771C138.507 64.771 142.766 63.039 146.336 59.5698L157.523 64.8231C154.735 68.7775 151.395 71.7041 147.5 73.5978C143.606 75.4968 138.987 76.441 133.636 76.441C125.331 76.441 118.571 73.8222 113.351 68.5897C108.132 63.3572 105.522 56.7997 105.522 48.9223C105.522 40.8518 108.126 34.1482 113.331 28.8166C118.535 23.485 125.06 20.8192 132.911 20.8192C141.247 20.8192 148.022 23.485 153.248 28.8166C158.468 34.1482 161.078 41.1909 161.078 49.9395L161.025 52.4749ZM147.746 42.0256C146.869 39.0781 145.141 36.6784 142.557 34.8316C139.973 32.9849 136.977 32.0615 133.568 32.0615C129.867 32.0615 126.615 33.0996 123.823 35.1707C122.069 36.4697 120.445 38.7547 118.947 42.0256H147.746Z" fill="#34D186"/>
<path d="M173.115 101.518C174.806 101.518 176.252 102.129 177.463 103.355C178.674 104.575 179.274 106.057 179.274 107.799C179.274 109.516 178.674 110.982 177.479 112.192C176.283 113.402 174.853 114.007 173.188 114.007C171.476 114.007 170.014 113.392 168.803 112.155C167.592 110.919 166.992 109.422 166.992 107.658C166.992 105.963 167.587 104.518 168.787 103.318C169.983 102.118 171.424 101.518 173.115 101.518Z" fill="white"/>
</g>
<defs>
<filter id="filter0_ii_349_1409" x="0" y="0.885742" width="180" height="113.122" filterUnits="userSpaceOnUse" color-interpolation-filters="sRGB">
<feFlood flood-opacity="0" result="BackgroundImageFix"/>
<feBlend mode="normal" in="SourceGraphic" in2="BackgroundImageFix" result="shape"/>
<feColorMatrix in="SourceAlpha" type="matrix" values="0 0 0 0 0 0 0 0 0 0 0 0 0 0 0 0 0 0 127 0" result="hardAlpha"/>
<feOffset/>
<feGaussianBlur stdDeviation="4.5"/>
<feComposite in2="hardAlpha" operator="arithmetic" k2="-1" k3="1"/>
<feColorMatrix type="matrix" values="0 0 0 0 0.0554217 0 0 0 0 0.244578 0 0 0 0 0.154217 0 0 0 0.15 0"/>
<feBlend mode="normal" in2="shape" result="effect1_innerShadow_349_1409"/>
<feColorMatrix in="SourceAlpha" type="matrix" values="0 0 0 0 0 0 0 0 0 0 0 0 0 0 0 0 0 0 127 0" result="hardAlpha"/>
<feOffset/>
<feGaussianBlur stdDeviation="8"/>
<feComposite in2="hardAlpha" operator="arithmetic" k2="-1" k3="1"/>
<feColorMatrix type="matrix" values="0 0 0 0 0.0554217 0 0 0 0 0.244578 0 0 0 0 0.154217 0 0 0 0.1 0"/>
<feBlend mode="normal" in2="effect1_innerShadow_349_1409" result="effect2_innerShadow_349_1409"/>
</filter>
</defs>
</svg>

<svg width="180" height="115" fill="none" xmlns="http://www.w3.org/2000/svg"><g filter="url(#a)"><path d="M19.507 95.143C8.733 95.143 0 86.416 0 75.648V20.381C0 9.613 8.733.886 19.507.886h140.986C171.267.886 180 9.613 180 20.38v74.762H19.507z" fill="#fff"/><path d="M22.451 22.186H35.45l10.643 30.096 11.453-30.096h7.95l11.244 29.757 10.654-29.757h13.081L81.16 75.085h-8.415L61.46 44.942 49.835 75.085h-8.32L22.45 22.186zM161.025 52.475h-42.662c.616 3.761 2.26 6.75 4.938 8.968 2.672 2.222 6.086 3.328 10.241 3.328 4.965 0 9.224-1.732 12.794-5.201l11.187 5.253c-2.788 3.955-6.128 6.881-10.023 8.775-3.894 1.899-8.513 2.843-13.864 2.843-8.305 0-15.065-2.619-20.285-7.851-5.219-5.233-7.829-11.79-7.829-19.668 0-8.07 2.604-14.774 7.809-20.105 5.204-5.332 11.729-7.998 19.58-7.998 8.336 0 15.111 2.666 20.337 7.998 5.22 5.331 7.83 12.374 7.83 21.123l-.053 2.535zm-13.279-10.45c-.877-2.947-2.605-5.347-5.189-7.193-2.584-1.847-5.58-2.77-8.989-2.77-3.701 0-6.953 1.038-9.745 3.109-1.754 1.299-3.378 3.584-4.876 6.855h28.799z" fill="#34D186"/><path d="M173.115 101.518c1.691 0 3.137.611 4.348 1.837 1.211 1.22 1.811 2.702 1.811 4.444 0 1.717-.6 3.183-1.795 4.393-1.196 1.21-2.626 1.815-4.291 1.815-1.712 0-3.174-.615-4.385-1.852-1.211-1.236-1.811-2.733-1.811-4.497 0-1.695.595-3.14 1.795-4.34 1.196-1.2 2.637-1.8 4.328-1.8z" fill="#fff"/></g><defs><filter id="a" x="0" y=".886" width="180" height="113.122" filterUnits="userSpaceOnUse" color-interpolation-filters="sRGB"><feFlood flood-opacity="0" result="BackgroundImageFix"/><feBlend in="SourceGraphic" in2="BackgroundImageFix" result="shape"/><feColorMatrix in="SourceAlpha" values="0 0 0 0 0 0 0 0 0 0 0 0 0 0 0 0 0 0 127 0" result="hardAlpha"/><feOffset/><feGaussianBlur stdDeviation="4.5"/><feComposite in2="hardAlpha" operator="arithmetic" k2="-1" k3="1"/><feColorMatrix values="0 0 0 0 0.0554217 0 0 0 0 0.244578 0 0 0 0 0.154217 0 0 0 0.15 0"/><feBlend in2="shape" result="effect1_innerShadow_349_1409"/><feColorMatrix in="SourceAlpha" values="0 0 0 0 0 0 0 0 0 0 0 0 0 0 0 0 0 0 127 0" result="hardAlpha"/><feOffset/><feGaussianBlur stdDeviation="8"/><feComposite in2="hardAlpha" operator="arithmetic" k2="-1" k3="1"/><feColorMatrix values="0 0 0 0 0.0554217 0 0 0 0 0.244578 0 0 0 0 0.154217 0 0 0 0.1 0"/><feBlend in2="effect1_innerShadow_349_1409" result="effect2_innerShadow_349_1409"/></filter></defs></svg>
